src/actions/16/view-filter.svg

<svg viewBox="0 0 16 16" xmlns="http://www.w3.org/2000/svg">
 <defs>
  <style type="text/css">.ColorScheme-Text {
        color:#2e3440;
      }</style>
 </defs>
 <path class="ColorScheme-Text" d="m3 2-1 1v1 0.3125l4 5.6562v0.03125 2l4 2v-4-0.03125l4-5.6562v-1.3125l-1-1h-4-1.75-4.25zm0 1h4.25 1.75 4v1l-4 5.625v0.375 1 1l-2-1v-1-0.375l-4-5.625v-1z" fill="currentColor"/>
</svg>

<svg xmlns="http://www.w3.org/2000/svg" viewBox="0 0 16 16">
  <defs id="defs3051">
    <style type="text/css" id="current-color-scheme">
      .ColorScheme-Text {
        color:#2e3440;
      }
      </style>
  </defs>
 <path style="fill:currentColor;fill-opacity:1;stroke:none" 
       d="M 3 2 L 2 3 L 2 4 L 2 4.3125 L 6 9.96875 L 6 10 L 6 12 L 10 14 L 10 10 L 10 9.96875 L 14 4.3125 L 14 3 L 13 2 L 9 2 L 7.25 2 L 3 2 z M 3 3 L 7.25 3 L 9 3 L 13 3 L 13 4 L 9 9.625 L 9 10 L 9 11 L 9 12 L 7 11 L 7 10 L 7 9.625 L 3 4 L 3 3 z "
     class="ColorScheme-Text"
     />
</svg>
